X: 6399
T: Castle Kelly
R: reel
M: 4/4
K: Aminor
A2cA ABcA|G~E3 G~E3|AccA GAcd|ecdB cBAG|
A2cA ABcA|G~E3 G~E3|AccA GAcd|ecdB cBAG|
A2cA ABcA|G~E3 G~E3|AccA cAdA|eAAG ~A3E|
A~c3 G~c3|^F~c3 =F~c3|AccA GAcd|ecdB cBAg||
|:agec dfed|cAGE G3g|agec d2cd|eaag abc'b|
[1 agec dfed|cAGE GEDC|A,B,CD EGAd|ecdB c~A3:|
[2 agec dfed|cAGE G2EG|AccA GAcd|ecdB cBAG||

